X:1
T:Ach Gott, erh\"or' mein Seufzen
T:Ach Gott, erh\"or' mein Seufzen
T:BWV 254
T:Johann Sebastian Bach
C:Johann Sebastian Bach
%%score 1 2 3 4
L:1/8
Q:1/4=96
M:4/4
K:Dmin
V:1 treble 
V:2 treble 
V:3 bass 
V:4 bass 
V:1
 D2 | F2 F2 G2 G2 | A2 A2 B2 A2 | G4 F2 C2 | F2 F2 G2 G2 | A2 A2 G2 F2 | E4 D2 A2 | F2 G2 E2 A2 | %8
 F2 G2 E2 E2 | F2 F2 G2 G2 | A2 A2 G2 F2 | E4 D4 |] %12
V:2
 A,2 | DE F2 F2 ED | C2 D2 D G2 F- | FE/D/ E2 C2 A,G, | F,2 D2 D2 C2 | C2 F2 F E2 D | %6
 D2 ^C2 A,2 E2- | ED DE ^C2 E2 | DC D2 C2 C2 | C2 D2 D2 E2- | ED/E/ F2 E3 D | D2 ^C2 A,4 |] %12
V:3
 F,2 | A,2 C2 D2 CB, | A,G, F,3 E, C2 | DG, CB, A,2 F,G, | A,2 B,2 =B,A, G,2 | F,2 C2 C>_B, A,2 | %6
 B,2 A,G, F,2 A,2 | A,2 B,2 A,2 A,2 | A,2 G,2 G,2 G,2 | A,2 A,2 B,3 C/=B,/ | A,2 DC _B,2 A,2 | %11
 B,2 A,G, ^F,4 |] %12
V:4
 D,2 | D,2 A,,2 B,,2 C,2 | F,E, D,2 G,,2 A,,2 | B,,2 C,2 F,,2 F,E, | D,C,B,,A,, G,,F,, E,,2 | %5
 F,,G,,A,,B,, C,2 D,2 | G,,2 A,,2 D,,2 C,2 | D,2 G,,2 A,,2 C,2- | C,2 =B,,2 C,2 C,_B,, | %9
 A,,F,, D,C, B,,A,, G,,C, | F,E, D,3 ^C, D,2 | G,,2 A,,2 D,,4 |] %12

